printer-pos-network-outline.svg

<svg  viewBox="0 0 24 24" fill="currentColor"><path  d="M13 11H17V13H13V11M22 20V22H15C15 22.55 14.55 23 14 23H10C9.45 23 9 22.55 9 22H2V20H9C9 19.45 9.45 19 10 19H11V17H4V10C4 8.9 4.89 8 6 8H7V2H17V8H18C19.11 8 20 8.9 20 10V17H13V19H14C14.55 19 15 19.45 15 20H22M9 8H15V4H9V8M18 15V10H6V15H18Z"/></svg>

<svg fill="currentColor" viewBox="0 0 24 24"><path d="M13 11h4v2h-4zm9 9v2h-7c0 .55-.45 1-1 1h-4c-.55 0-1-.45-1-1H2v-2h7c0-.55.45-1 1-1h1v-2H4v-7a2 2 0 0 1 2-2h1V2h10v6h1a2 2 0 0 1 2 2v7h-7v2h1c.55 0 1 .45 1 1zM9 8h6V4H9zm9 7v-5H6v5z"/></svg>
